X: 26784
T: Miller Of Droghan, The
R: reel
M: 4/4
K: Gmajor
|BE~E2 DEB,E|DEGA BcBA|G~E3 DEB,E|DEGA B2 BA|
BE~E2 DEB,E|DEGA BcBA|G~E3 DEB,E|DEGA BcBA||
G2 BG DGBG|Eeef gedB|G2 BG DGBA|GEGA BcBA|
G2 BG DGBG|Eeef gfed|faef dBBA|GEGA BcBA||

